X:995
T:Ragged Hank of Yarn, The
R:reel
Z:id:hn-reel-995
M:C|
L:1/8
K:Dmix
A,D~D2 (3EFG AB | c3d cAGE | D2AD (3EFG AB | cAGE EFGE |
D2AD (3EFG AB | c2ed cAGE | D2AD (3EFG AB | cAGE EDD2 ||
|: d3e dcAB | c2Bd cAGc |1 d2ce dcAB | cAGE EDD2 :|2 d3e =fded | cAGE EDD2 ||
P:variations
D2ED EGAB | c2dB cAGE | D2ED (3EFG AB | cAGE EDCE |
D2ED EGAB | cGed cAGE | D2ED (3EFG AB | cAGE EDD2 ||
|: d3e dcAB | cded cAGc |1 Addc dcAB | cAGE EDD2 :|2 Adde ^fded | cAGE EDCE ||

